X:152
T:Sound of War from the Glen, The
T:Tha toirm anns a' ghleann
R:Slow Air
S:Simon Fraser Collection
N:No.218
O:Scottish
M:3/4
L:1/8
Q:1/4=120
K:C Minor
G>G|c2B2c2|d3 z G>G|e2d2c2|[=B2d2] z2 G>G|c2B2c2|d3z g>g|
D4B2|(c2G2)||b>a|g2f2e2|d3z g>g|c2B2c2|d3z b>a|g2f2e2|d3z g>f|
D4B2|c2G2||

